portable_config/luts/ACES_1.3_Rec.2020_ST2084_2000nit_to_Rec.709_ReferenceGamutCompress.cube
TITLE "Generated by Resolve"
LUT_3D_SIZE 65
0 0 0
0 0 0
0 0 0
0 0 0
0 0 0
0.0468605 0 0
0.0740978 0 0
0.0992752 0 0
0.1187 0 0
0.136904 0 0
0.15613 0 0
0.176516 0 0
0.198245 0 0.0112154
0.221332 0 0.0188144
0.245548 0 0.0247807
0.270954 0 0.0297551
0.297322 0 0.0342107
0.325597 0 0.0383612
0.355993 0 0.0425422
0.388769 0 0.0470588
0.42417 0 0.051957
0.462516 0 0.0573434
0.503639 0 0.0632639
0.546349 0 0.0697032
0.58996 0 0.0766766
0.634592 0 0.0843214
0.68011 0 0.0927749
0.726329 0 0.102144
0.773129 0 0.112505
0.820294 0 0.124025
0.866133 0 0.13698
0.908507 0 0.151614
0.946761 0 0.167941
0.980209 0 0.186023
1 0 0.206058
1 0 0.22826
1 0.0789044 0.253025
1 0.197498 0.28101
1 0.277577 0.312901
1 0.348135 0.35137
1 0.415869 0.395895
1 0.483192 0.444678
1 0.551125 0.497475
1 0.620462 0.554406
1 0.68835 0.615778
1 0.749264 0.681697
1 0.801175 0.745602
1 0.846815 0.801892
1 0.885481 0.851179
1 0.919341 0.893477
1 0.949416 0.931014
1 0.977371 0.966293
1 0.99823 0.994553
1 1 1
1 1 1
1 1 1
1 1 1
1 1 1
1 1 1
1 1 1
1 1 1
1 1 1
1 1 1
1 1 1
1 1 1
0 0 0
0 0 0
0 0 0
0 0 0
0.0103456 0 0
0.0489204 0 0
0.0752117 0 0
0.099855 0 0
0.118776 0 0
0.136934 0 0
0.156085 0 0
0.176425 0 0
0.198154 0 0.0106661
0.221256 0 0.0185702
0.245472 0 0.0246281
0.270878 0 0.0296483
0.297276 0 0.0341344
0.325551 0 0.0382849
0.355947 0 0.0424811
0.388724 0 0.0469825
0.424125 0 0.0518959
0.46247 0 0.0572824
0.503609 0 0.0632334
0.546304 0 0.0696727
0.589929 0 0.0766308
0.634562 0 0.0842908
0.680079 0 0.0927443
0.726314 0 0.102113
0.773098 0 0.11249
0.820264 0 0.12401
0.866117 0 0.13695
0.908492 0 0.151598
0.946761 0 0.167926
0.980209 0 0.186007
1 0 0.206043
1 0 0.228244
1 0.0795911 0.25301
1 0.197498 0.28101
1 0.277577 0.312886
1 0.348135 0.35137
1 0.415854 0.395895
1 0.483192 0.444678
1 0.551125 0.497475
1 0.620462 0.554406
1 0.68835 0.615778
1 0.749264 0.681697
1 0.801175 0.745602
1 0.846815 0.801892
1 0.885481 0.851179
1 0.919341 0.893477
1 0.949416 0.931014
1 0.977371 0.966293
1 0.99823 0.994553
1 1 1
1 1 1
1 1 1
1 1 1
1 1 1
1 1 1
1 1 1
1 1 1
1 1 1
1 1 1
1 1 1
1 1 1
0 0.0179294 0
0 0.0179294 0
0.0175479 0.0172122 0
0.0364691 0.0148775 0
0.0452583 0.0132601 0
0.057847 0.00585946 0
0.0774243 0 0
0.100267 0 0
0.118608 0 0
0.136843 0 0
0.155932 0 0
0.176211 0 0
0.197925 0 0.00947585
0.221042 0 0.0180972
0.245274 0 0.0243076
0.270695 0 0.0294041
0.297124 0 0.0339208
0.325399 0 0.0380865
0.35581 0 0.0422827
0.388586 0 0.0468147
0.424002 0 0.0517433
0.462348 0 0.0571603
0.503502 0 0.0631113
0.546212 0 0.0695506
0.589837 0 0.0765393
0.634485 0 0.0841993
0.680018 0 0.092668
0.726238 0 0.102037
0.773037 0 0.112413
0.820218 0 0.123949
0.866072 0 0.136904
0.908446 0 0.151553
0.946715 0 0.16788
0.980163 0 0.185977
1 0 0.206012
1 0 0.228214
1 0.0816052 0.252995
1 0.197711 0.28101
1 0.277577 0.312886
1 0.348135 0.35137
1 0.415854 0.395895
1 0.483192 0.444678
1 0.551125 0.497475
1 0.620462 0.554406
1 0.68835 0.615778
1 0.749264 0.681697
1 0.801175 0.745602
1 0.846815 0.801892
1 0.885481 0.851179
1 0.919341 0.893477
1 0.949416 0.931014
1 0.977371 0.966293
1 0.99823 0.994553
1 1 1
1 1 1
1 1 1
1 1 1
1 1 1
1 1 1
1 1 1
1 1 1
1 1 1
1 1 1
1 1 1
1 1 1
0 0.0357977 0
0 0.0357977 0
0 0.0355077 0
0.0351568 0.0343328 0
0.0517281 0.0328069 0
0.0649577 0.0310063 0
0.080354 0.0276646 0
0.0989395 0.0199588 0
0.117342 0 0
0.13611 0 0
0.155474 0 0
0.175814 0 0
0.197543 0 0.00729381
0.220661 0 0.0174563
0.244923 0 0.0238651
0.270359 0 0.0290379
0.296818 0 0.0335851
0.325124 0 0.0377661
0.355535 0 0.0419928
0.388327 0 0.04654
0.423774 0 0.0514992
0.462135 0 0.0569314
0.503304 0 0.0628977
0.546014 0 0.0693675
0.58967 0 0.0763714
0.634333 0 0.0840467
0.679881 0 0.0925307
0.726116 0 0.101915
0.772931 0 0.112306
0.820111 0 0.123842
0.86598 0 0.136812
0.90837 0 0.151461
0.946639 0 0.167803
0.980102 0 0.185901
1 0 0.205951
1 0 0.228168
1 0.0851301 0.252949
1 0.198795 0.280964
1 0.277577 0.312886
1 0.348135 0.35137
1 0.415854 0.395895
1 0.483192 0.444678
1 0.551125 0.497459
1 0.620462 0.554406
1 0.68835 0.615778
1 0.749264 0.681697
1 0.801175 0.745602
1 0.846815 0.801892
1 0.885481 0.851179
1 0.919341 0.893477
1 0.949416 0.931014
1 0.977371 0.966293
1 0.99823 0.994553
1 1 1
1 1 1
1 1 1
1 1 1
1 1 1
1 1 1
1 1 1
1 1 1
1 1 1
1 1 1
1 1 1
1 1 1
0 0.0487068 0
0 0.0487068 0
0 0.0484932 0
0.0257572 0.0477455 0
0.0478828 0.0467079 0
0.0645762 0.045304 0
0.0812085 0.0431678 0
0.0980697 0.0400092 0
0.115984 0.0350347 0
0.13489 0.0263981 0
0.154528 0 0
0.175128 0 0
0.196933 0 0
0.220066 0 0.016434
0.244327 0 0.0231785
0.26978 0 0.0284886
0.296315 0 0.0330968
0.324636 0 0.0373236
0.355093 0 0.0415808
0.387915 0 0.0461585
0.423392 0 0.0511482
0.461784 0 0.0566262
0.502983 0 0.062623
0.545724 0 0.0691081
0.58941 0 0.0761273
0.634089 0 0.0838178
0.679667 0 0.0923171
0.725933 0 0.101732
0.772763 0 0.112123
0.819959 0 0.12369
0.865843 0 0.13666
0.908248 0 0.151339
0.946532 0 0.167697
0.979995 0 0.185809
1 0 0.205859
1 0 0.228092
1 0.0902571 0.252872
1 0.200473 0.280888
1 0.277867 0.312871
1 0.348135 0.35137
1 0.415854 0.395895
1 0.483192 0.444678
1 0.551125 0.497459
1 0.620462 0.554406
1 0.68835 0.615778
1 0.749264 0.681697
1 0.801175 0.745602
1 0.846815 0.801892
1 0.885481 0.851179
1 0.919341 0.893477
1 0.949416 0.931014
1 0.977371 0.966293
1 0.99823 0.994553
1 1 1
1 1 1
1 1 1
1 1 1
1 1 1
1 1 1
1 1 1
1 1 1
1 1 1
1 1 1
1 1 1
1 1 1
0 0.0610513 0
0 0.0610513 0
0 0.0608835 0
0 0.0603342 0
0.0401312 0.0595865 0
0.0600137 0.0585489 0
0.078294 0.0570077 0
0.0961776 0.0548409 0
0.114275 0.0518196 0
0.133257 0.0474403 0
0.153124 0.0408484 0
0.173938 0.0295262 0
0.195926 0 0
0.21915 0 0.0142214
0.243442 0 0.0219425
0.268925 0 0.0275731
0.295552 0 0.0323339
0.323919 0 0.0366522
0.354406 0 0.041001
0.387289 0 0.045655
0.422812 0 0.0506905
0.46125 0 0.0562142
0.50251 0 0.0622416
0.545296 0 0.0687572
0.589029 0 0.0758068
0.633753 0 0.0835279
0.679362 0 0.0920577
0.725658 0 0.101472
0.772519 0 0.111894
0.819745 0 0.123476
0.865644 0 0.136477
0.90808 0 0.151171
0.94638 0 0.167544
0.979858 0 0.185672
1 0 0.205737
1 0 0.22797
1 0.09691 0.252766
1 0.202838 0.280797
1 0.279377 0.312795
1 0.348119 0.35137
1 0.415854 0.395895
1 0.483192 0.444678
1 0.551125 0.497459
1 0.620447 0.554406
1 0.68835 0.615778
1 0.749264 0.681697
1 0.801175 0.745602
1 0.846815 0.801892
1 0.885481 0.851179
1 0.919341 0.893477
1 0.949416 0.931014
1 0.977371 0.966293
1 0.99823 0.994553
1 1 1
1 1 1
1 1 1
1 1 1
1 1 1
1 1 1
1 1 1
1 1 1
1 1 1
1 1 1
1 1 1
1 1 1
0 0.0742657 0
0 0.0742504 0
0 0.0740978 0
0 0.0736858 0
0.0221714 0.0731365 0
0.0519722 0.0723583 0
0.0729992 0.0712139 0
0.0923629 0.0696117 0
0.111376 0.0674601 0
0.130846 0.0645151 0
0.151064 0.0604562 0
0.172198 0.0547189 0
0.194415 0.0461128 0
0.217807 0.0305638 0.00733959
0.242191 0 0.0193027
0.267735 0 0.0258946
0.294453 0 0.0310826
0.322866 0 0.0356298
0.353429 0 0.0401465
0.386389 0 0.0449378
0.421988 0 0.0500801
0.460502 0 0.0556649
0.501839 0 0.0617533
0.544686 0 0.0683146
0.588495 0 0.0753948
0.633295 0 0.0831464
0.67895 0 0.0917067
0.725292 0 0.101152
0.772183 0 0.111604
0.81944 0 0.123201
0.865385 0 0.136233
0.907851 0 0.150942
0.946166 0 0.167346
0.97966 0 0.185489
1 0 0.20557
1 0 0.227817
1 0.104921 0.252628
1 0.205951 0.280674
1 0.281392 0.312688
1 0.349203 0.351308
1 0.415839 0.395895
1 0.483177 0.444678
1 0.551125 0.497459
1 0.620447 0.554406
1 0.68835 0.615778
1 0.749264 0.681697
1 0.801175 0.745602
1 0.84683 0.801892
1 0.885481 0.851179
1 0.919356 0.893477
1 0.949416 0.931014
1 0.977371 0.966293
1 0.99823 0.994553
1 1 1
1 1 1
1 1 1
1 1 1
1 1 1
1 1 1
1 1 1
1 1 1
1 1 1
1 1 1
1 1 1
1 1 1
0 0.0881514 0
0 0.0881208 0
0 0.0879835 0
0 0.0876783 0
0 0.0872511 0
0.0370794 0.0866407 0
0.0648203 0.0857557 0
0.0866407 0.0845197 0
0.107027 0.082887 0
0.127367 0.0806897 0
0.148196 0.07776 0
0.169802 0.0738231 0
0.192416 0.0684672 0
0.216052 0.0609293 0
0.240589 0.0496071 0.01355
0.266163 0.0269322 0.0225986
0.293004 0 0.0288548
0.321492 0 0.0339818
0.352117 0 0.03888
0.385168 0 0.0439155
0.420859 0 0.0492103
0.459464 0 0.0549325
0.500923 0 0.0611124
0.543862 0 0.0677348
0.587777 0 0.074876
0.632654 0 0.0826734
0.678401 0 0.0912642
0.724804 0 0.100755
0.77174 0 0.111223
0.819059 0 0.122866
0.865049 0 0.135927
0.907546 0 0.150668
0.945891 0 0.167086
0.979416 0 0.18526
1 0 0.205371
1 0 0.227634
1 0.114076 0.252461
1 0.209857 0.280522
1 0.28397 0.312551
1 0.351064 0.351186
1 0.416297 0.395865
1 0.483177 0.444678
1 0.551125 0.497459
1 0.620447 0.554406
1 0.68835 0.615778
1 0.749264 0.681697
1 0.801175 0.745602
1 0.84683 0.801892
1 0.885481 0.851179
1 0.919356 0.893477
1 0.949416 0.931014
1 0.977371 0.966293
1 0.99823 0.994553
1 1 1
1 1 1
1 1 1
1 1 1
1 1 1
1 1 1
1 1 1
1 1 1
1 1 1
1 1 1
1 1 1
1 1 1
0 0.102678 0
0 0.102647 0
0 0.102525 0
0 0.102281 0
0 0.101946 0
0 0.101457 0
0.0513161 0.10074 0
0.0782788 0.0997635 0
0.100923 0.0984665 0
0.122621 0.0967422 0
0.144335 0.0944839 0
0.166629 0.0915084 0
0.189792 0.0875868 0
0.21384 0.082414 0
0.238621 0.0755169 0
0.264363 0.0658427 0.0162661
0.291264 0.0507057 0.0247349
0.319783 0 0.0310674
0.350469 0 0.0367895
0.383581 0 0.0423285
0.419364 0 0.0479591
0.458091 0 0.0539101
0.499687 0 0.0602426
0.542763 0 0.0669718
0.586801 0 0.0742046
0.631815 0 0.0820783
0.677668 0 0.0907301
0.724163 0 0.100252
0.771176 0 0.110765
0.818555 0 0.122454
0.864622 0 0.135561
0.907164 0 0.150332
0.945556 0 0.166796
0.97911 0 0.184985
1 0 0.205112
1 0 0.227405
1 0.124208 0.252247
1 0.214603 0.280324
1 0.287129 0.312383
1 0.353353 0.351049
1 0.418036 0.395743
1 0.483177 0.444663
1 0.55111 0.497459
1 0.620447 0.554406
1 0.68835 0.615778
1 0.749264 0.681697
1 0.801175 0.745602
1 0.84683 0.801892
1 0.885481 0.851179
1 0.919356 0.893477
1 0.949416 0.931014
1 0.977371 0.966293
1 0.99823 0.994553
1 1 1
1 1 1
1 1 1
1 1 1
1 1 1
1 1 1
1 1 1
1 1 1
1 1 1
1 1 1
1 1 1
1 1 1
0 0.118074 0
0 0.118044 0
0 0.117937 0
0 0.117754 0
0 0.117479 0
0 0.117082 0
0.0111849 0.116503 0
0.0651408 0.115709 0
0.0921798 0.114656 0
0.11606 0.113268 0
0.139132 0.111452 0
0.162371 0.109102 0
0.186297 0.106035 0
0.210986 0.102098 0
0.23621 0.0970779 0
0.262211 0.0905623 0
0.28925 0.0818189 0.0168154
0.317815 0.0691081 0.0258946
0.348516 0.0466773 0.0331121
0.381659 0 0.0397345
0.417517 0 0.0460365
0.456352 0 0.0524147
0.498085 0 0.0590219
0.541329 0 0.0659495
0.58555 0 0.0733196
0.630716 0 0.0813001
0.676707 0 0.0900282
0.723323 0 0.0996262
0.770459 0 0.110216
0.817914 0 0.12195
0.864073 0 0.135103
0.906691 0 0.149935
0.945144 0 0.16643
0.978729 0 0.184649
1 0 0.204822
1 0 0.227115
1 0.135164 0.251987
1 0.220203 0.280079
1 0.290929 0.312169
1 0.356146 0.350866
1 0.420157 0.395605
1 0.484611 0.444572
1 0.55111 0.497459
1 0.620447 0.554406
1 0.68835 0.615778
1 0.749264 0.681697
1 0.801175 0.745602
1 0.84683 0.801892
1 0.885481 0.851179
1 0.919356 0.893492
1 0.949416 0.931014
1 0.977371 0.966293
1 0.99823 0.994553
1 1 1
1 1 1
1 1 1
1 1 1
1 1 1
1 1 1
1 1 1
1 1 1
1 1 1
1 1 1
1 1 1
1 1 1
0 0.134401 0
0 0.134371 0
0 0.134295 0
0 0.134142 0
0 0.133928 0
0 0.133593 0
0 0.13312 0
0.0390936 0.132464 0
0.0790112 0.131594 0
0.106889 0.130449 0
0.132128 0.128954 0
0.156741 0.127047 0
0.181689 0.124575 0
0.207187 0.121416 0
0.233112 0.117479 0
0.259602 0.112551 0
0.2869 0.106279 0
0.315602 0.0979782 0.0154574
0.346349 0.086305 0.0268711
0.379492 0.0679637 0.0352789
0.415335 0.0209201 0.0428931
0.454231 0 0.0501259
0.496101 0 0.0572671
0.539513 0 0.0645151
0.583947 0 0.0721294
0.629313 0 0.0802777
0.675471 0 0.0891432
0.722255 0 0.0988479
0.769528 0 0.109529
0.817121 0 0.121355
0.863386 0 0.134569
0.906096 0 0.149447
0.944625 0 0.165988
0.978271 0 0.184268
1 0 0.204456
1 0 0.226795
1 0.146853 0.251682
1 0.226673 0.279805
1 0.295399 0.31191
1 0.359457 0.350668
1 0.42269 0.395438
1 0.486564 0.444434
1 0.551705 0.497414
1 0.620447 0.554406
1 0.68835 0.615778
1 0.749264 0.681697
1 0.801175 0.745602
1 0.84683 0.801892
1 0.885481 0.851179
1 0.919356 0.893492
1 0.949416 0.931014
1 0.977371 0.966293
1 0.99823 0.994568
1 1 1
1 1 1
1 1 1
1 1 1
1 1 1
1 1 1
1 1 1
1 1 1
1 1 1
1 1 1
1 1 1
1 1 1
0 0.151797 0
0 0.151766 0
0 0.151705 0
0 0.151598 0
0 0.151415 0
0 0.151141 0
0 0.150729 0
0 0.150179 0
0.055848 0.149462 0
0.0934768 0.148501 0
0.122454 0.147265 0
0.149233 0.145678 0
0.175601 0.143633 0
0.202167 0.141054 0
0.228977 0.13785 0
0.256245 0.133883 0
0.284092 0.128985 0
0.313069 0.122789 0
0.343938 0.114641 0.012665
0.377111 0.103395 0.0278019
0.412955 0.0867018 0.0376287
0.45182 0.0562448 0.0463874
0.493751 0 0.0545663
0.537301 0 0.0624552
0.581933 0 0.0704814
0.627527 0 0.0789197
0.67393 0 0.0879988
0.720913 0 0.0978714
0.768368 0 0.108675
0.816114 0 0.120607
0.862531 0 0.133913
0.905379 0 0.148867
0.943984 0 0.165484
0.977707 0 0.183795
1 0 0.204028
1 0 0.226398
1 0.159243 0.251331
1 0.234043 0.279484
1 0.300557 0.311604
1 0.363317 0.350408
1 0.425666 0.395239
1 0.488884 0.444282
1 0.553506 0.497292
1 0.620447 0.554406
1 0.68835 0.615778
1 0.749264 0.681697
1 0.801175 0.745602
1 0.84683 0.801892
1 0.885481 0.851179
1 0.919356 0.893492
1 0.949432 0.931014
1 0.977386 0.966293
1 0.99823 0.994568
1 1 1
1 1 1
1 1 1
1 1 1
1 1 1
1 1 1
1 1 1
1 1 1
1 1 1
1 1 1
1 1 1
1 1 1
0 0.170397 0
0 0.170382 0
0 0.170321 0
0 0.170245 0
0 0.170092 0
0 0.169863 0
0 0.169512 0
0 0.169055 0
0 0.168444 0
0.0713512 0.167636 0
0.108553 0.166598 0
0.138964 0.165255 0
0.167514 0.163546 0
0.19556 0.161395 0
0.223499 0.15874 0
0.251713 0.155459 0
0.280415 0.151461 0
0.310033 0.146502 0
0.341207 0.14023 0
0.374502 0.132036 0.00531014
0.410376 0.120928 0.0287785
0.44921 0.104921 0.0403143
0.491127 0.0788281 0.0501564
0.534707 0 0.0592813
0.579522 0 0.0680705
0.625345 0 0.0770275
0.671992 0 0.0864576
0.719234 0 0.0966049
0.766918 0 0.107607
0.814847 0 0.119692
0.861479 0 0.13312
0.904479 0 0.14818
0.943221 0 0.164874
0.97702 0 0.183246
1 0 0.20354
1 0.070985 0.225956
1 0.17232 0.250904
1 0.242329 0.279088
1 0.306432 0.311284
1 0.367773 0.350118
1 0.429129 0.394995
1 0.491585 0.444083
1 0.555627 0.497139
1 0.621759 0.554314
1 0.68835 0.615778
1 0.749264 0.681697
1 0.801175 0.745602
1 0.84683 0.801892
1 0.885481 0.851179
1 0.919356 0.893492
1 0.949432 0.931014
1 0.977386 0.966293
1 0.99823 0.994568
1 1 1
1 1 1
1 1 1
1 1 1
1 1 1
1 1 1
1 1 1
1 1 1
1 1 1
1 1 1
1 1 1
1 1 1
0 0.190143 0
0 0.190127 0
0 0.190082 0
0 0.190005 0
0 0.189899 0
0 0.1897 0
0 0.18941 0
0 0.189014 0
0 0.188479 0
0 0.187793 0
0.0868849 0.186908 0
0.12462 0.185779 0
0.156725 0.184329 0
0.186938 0.182513 0
0.216373 0.18027 0
0.245747 0.177523 0
0.275456 0.174166 0
0.306035 0.170047 0
0.337957 0.164935 0
0.371618 0.15848 0
0.407599 0.150103 0
0.446433 0.138842 0.0301671
0.488319 0.123049 0.0432898
0.531884 0.0998398 0.0542458
0.57673 0.0584115 0.0644846
0.622751 0 0.074342
0.669657 0 0.0843824
0.717159 0 0.0949416
0.765118 0 0.106233
0.813306 0 0.118547
0.860182 0 0.132143
0.90338 0 0.147341
0.942275 0 0.164141
0.976196 0 0.182605
1 0 0.202945
1 0.106279 0.225422
1 0.186099 0.250431
1 0.25153 0.278645
1 0.313085 0.310903
1 0.372854 0.349767
1 0.433082 0.39472
1 0.494697 0.44387
1 0.558053 0.496956
1 0.623652 0.554177
1 0.688472 0.615763
1 0.749264 0.681697
1 0.801175 0.745602
1 0.84683 0.801892
1 0.885481 0.851179
1 0.919356 0.893492
1 0.949432 0.931014
1 0.977386 0.966293
1 0.99823 0.994568
1 1 1
1 1 1
