portable_config/luts/ACES_1.3_Rec.2020_ST2084_2000nit_to_Rec.709.cube
TITLE "Generated by Resolve"
LUT_3D_SIZE 9
0 0 0
0.119554 0 0
0.297627 0 0
0.589075 0 0.0256809
0.951156 0 0.0550851
1 0 0.14435
1 0.21857 0.521508
1 1 1
1 1 1
0 0.102678 0
0.100923 0.0984665 0
0.291844 0.0502632 0
0.586358 0 0
0.950027 0 0.0507362
1 0 0.143999
1 0.21857 0.521508
1 1 1
1 1 1
0 0.255329 0
0 0.254215 0
0.251011 0.245029 0
0.568917 0.195575 0
0.94107 0 0
1 0 0.133928
1 0.218662 0.521538
1 1 1
1 1 1
0 0.505714 0
0 0.505287 0
0 0.5019 0
0.497139 0.485298 0
0.901656 0.438788 0
1 0.395789 0
1 0.372259 0.518181
1 1 1
1 1 1
0 0.813428 0
0 0.813199 0
0 0.81146 0
0 0.803037 0
0.800076 0.780362 0
1 0.761929 0
1 0.751659 0.500053
1 1 1
1 1 1
0 0.979782 0
0 0.979614 0
0 0.97818 0
0 0.971649 0
0.707179 0.954971 0
0.964157 0.940505 0
1 0.932982 0.522866
1 1 1
1 1 1
0.272084 1 0.632242
0.272084 1 0.632242
0.272084 1 0.632242
0.272099 1 0.632242
0.678935 1 0.634333
0.921508 1 0.647608
1 1 0.73637
1 1 1
1 1 1
1 1 1
1 1 1
1 1 1
1 1 1
1 1 1
1 1 1
1 1 1
1 1 1
1 1 1
1 1 1
1 1 1
1 1 1
1 1 1
1 1 1
1 1 1
1 1 1
1 1 1
1 1 1
0 0 0.102388
0.117418 0 0.101015
0.296422 0 0.0999313
0.588983 0 0.100191
0.951156 0 0.107866
1 0 0.149798
1 0.21857 0.521508
1 1 1
1 1 1
0 0.102464 0.0984207
0.0982528 0.0982681 0.0982528
0.292073 0.049073 0.0978866
0.586999 0 0.0983597
0.950072 0 0.106264
1 0 0.149218
1 0.21857 0.521508
1 1 1
1 1 1
0 0.255268 0.0784772
0 0.25417 0.0785687
0.250309 0.244968 0.0790875
0.56875 0.195483 0.0806134
0.941222 0 0.0911574
1 0 0.140536
1 0.218662 0.521553
1 1 1
1 1 1
0 0.505684 0
0 0.505272 0
0 0.501884 0
0.49688 0.485283 0
0.901518 0.438773 0
1 0.396277 0.0736858
1 0.372259 0.518181
1 1 1
1 1 1
0 0.813413 0
0 0.813184 0
0 0.811444 0
0 0.803021 0
0.799924 0.780346 0
1 0.761929 0
1 0.751659 0.500053
1 1 1
1 1 1
0 0.979782 0
0 0.979599 0
0 0.978164 0
0 0.971633 0
0.706996 0.954955 0
0.964034 0.94049 0.0546426
1 0.932982 0.522866
1 1 1
1 1 1
0.272084 1 0.632242
0.272084 1 0.632242
0.272084 1 0.632242
0.272099 1 0.632258
0.678935 1 0.634333
0.921508 1 0.647608
1 1 0.73637
1 1 1
1 1 1
1 1 1
1 1 1
1 1 1
1 1 1
1 1 1
1 1 1
1 1 1
1 1 1
1 1 1
1 1 1
1 1 1
1 1 1
1 1 1
1 1 1
1 1 1
1 1 1
1 1 1
1 1 1
0 0 0.254749
0.0974899 0 0.253895
0.292134 0 0.251362
0.583764 0 0.248875
0.950042 0 0.249546
1 0 0.265538
1 0.218601 0.521523
1 1 1
1 1 1
0 0.100755 0.252506
0.0713359 0.0965896 0.252125
0.287175 0.0452125 0.250462
0.582544 0 0.24831
0.949233 0 0.249058
1 0 0.265156
1 0.218616 0.521523
1 1 1
1 1 1
0 0.254795 0.244923
0 0.253697 0.244862
0.244511 0.244526 0.244511
0.570367 0.193652 0.243595
0.94136 0 0.244816
1 0 0.261326
1 0.218708 0.521569
1 1 1
1 1 1
0 0.505516 0.218952
0 0.505104 0.218967
0 0.501717 0.219059
0.494774 0.485115 0.219242
0.90074 0.438544 0.221454
1 0.395865 0.240558
1 0.372229 0.518212
1 1 1
1 1 1
0 0.813306 0.144778
0 0.813077 0.144823
0 0.811337 0.14519
0 0.802915 0.146365
0.798779 0.780255 0.152682
1 0.761807 0.1823
1 0.751659 0.500069
1 1 1
1 1 1
0 0.979675 0.218662
0 0.979492 0.218692
0 0.978058 0.218921
0 0.971527 0.219776
0.705531 0.954849 0.224338
0.963012 0.940398 0.246921
1 0.932982 0.522881
1 1 1
1 1 1
0.272114 1 0.632258
0.272114 1 0.632258
0.272114 1 0.632258
0.272129 1 0.632258
0.678996 1 0.634348
0.921523 1 0.647608
1 1 0.736385
1 1 1
1 1 1
1 1 1
1 1 1
1 1 1
1 1 1
1 1 1
1 1 1
1 1 1
1 1 1
1 1 1
1 1 1
1 1 1
1 1 1
1 1 1
1 1 1
1 1 1
1 1 1
1 1 1
1 1 1
0 0 0.504311
0 0 0.503944
0.266911 0 0.501823
0.578332 0 0.497719
0.942092 0 0.494957
1 0 0.501045
1 0.2224 0.521828
1 1 1
1 1 1
0 0.0929122 0.503243
0 0.0884413 0.502953
0.261662 0 0.501167
0.576516 0 0.497383
0.941238 0 0.494728
1 0 0.500832
1 0.22237 0.521828
1 1 1
1 1 1
0 0.252522 0.497963
0 0.251423 0.497856
0.212955 0.242283 0.497093
0.561578 0.190875 0.494835
0.934386 0 0.492912
1 0 0.499168
1 0.222263 0.521874
1 1 1
1 1 1
0 0.504677 0.485069
0 0.50425 0.485054
0 0.500877 0.484901
0.48426 0.484306 0.484276
0.899306 0.436652 0.483955
1 0.394385 0.490669
1 0.388144 0.518105
1 1 1
1 1 1
0 0.812772 0.463432
0 0.812543 0.463432
0 0.810803 0.463462
0 0.80238 0.463447
0.79321 0.779751 0.46424
1 0.761227 0.471275
1 0.754559 0.500359
1 1 1
1 1 1
0 0.979202 0.48217
0 0.979019 0.48217
0 0.977584 0.4822
0 0.971054 0.482246
0.698985 0.954406 0.483207
0.958572 0.939971 0.49044
1 0.933196 0.523339
1 1 1
1 1 1
0.272251 1 0.632288
0.272251 1 0.632288
0.272251 1 0.632288
0.272251 1 0.632288
0.67921 1 0.634379
0.921553 1 0.647639
1 1 0.736416
1 1 1
1 1 1
1 1 1
1 1 1
1 1 1
1 1 1
1 1 1
1 1 1
1 1 1
1 1 1
1 1 1
1 1 1
1 1 1
1 1 1
1 1 1
1 1 1
1 1 1
1 1 1
1 1 1
1 1 1
0 0 0.814817
0 0 0.814618
0.179248 0 0.813214
0.554314 0 0.808896
0.932738 0 0.80354
1 0 0.802441
1 0.217609 0.803464
1 1 1
1 1 1
0 0.0708934 0.814221
0 0.0642252 0.814038
0.170321 0 0.812711
0.552453 0 0.808576
0.931777 0 0.803342
1 0 0.802304
1 0.217609 0.803433
1 1 1
1 1 1
0 0.247272 0.810269
0 0.246159 0.810162
0 0.236957 0.809293
0.537087 0.18407 0.80621
0.924041 0 0.80174
1 0 0.8009
1 0.2177 0.803311
1 1 1
1 1 1
0 0.502678 0.798947
0 0.502251 0.798901
0 0.498878 0.798581
0.455116 0.482353 0.797162
0.886366 0.434791 0.794537
1 0.393912 0.7944
1 0.385885 0.800107
1 1 1
1 1 1
0 0.811414 0.780438
0 0.811185 0.780423
0 0.809445 0.780301
0 0.801022 0.779706
0.778485 0.7785 0.778485
1 0.759533 0.779263
1 0.753216 0.785306
1 1 1
1 1 1
0 0.977996 0.775799
0 0.977829 0.775784
0 0.976379 0.775692
0 0.969863 0.775265
0.682658 0.953292 0.774472
0.947494 0.938918 0.775433
1 0.932204 0.780758
1 1 1
1 1 1
0.226551 1 0.798413
0.226551 1 0.798413
0.226566 1 0.798367
0.226658 1 0.798184
0.668086 1 0.797635
0.914214 1 0.798337
1 1 0.802945
1 1 1
1 1 1
1 1 1
1 1 1
1 1 1
1 1 1
1 1 1
1 1 1
1 1 1
1 1 1
1 1 1
1 1 1
1 1 1
1 1 1
1 1 1
1 1 1
1 1 1
1 1 1
1 1 1
1 1 1
0 0 0.985931
0 0 0.985779
0.0864424 0 0.984665
0.542 0 0.980758
0.923415 0 0.974884
1 0 0.971847
1 0.236194 0.966232
1 1 1
1 1 1
0 0.0809186 0.985458
0 0.075227 0.985306
0.0547494 0 0.984253
0.540078 0 0.980453
0.922454 0 0.97467
1 0 0.971664
1 0.23621 0.966232
1 1 1
1 1 1
0 0.249073 0.982162
0 0.247929 0.982055
0 0.23888 0.981247
0.524437 0.186877 0.97818
0.914672 0 0.973068
1 0 0.970275
1 0.236286 0.966232
1 1 1
1 1 1
0 0.503517 0.971466
0 0.50309 0.97142
0 0.499733 0.971038
0.439734 0.483268 0.96939
0.876707 0.436683 0.966018
1 0.395315 0.963912
1 0.392477 0.963363
1 1 1
1 1 1
0 0.810697 0.952895
0 0.810468 0.952865
0 0.808698 0.952697
0 0.800275 0.951888
0.768063 0.778073 0.950027
1 0.759319 0.948791
1 0.753231 0.948867
1 1 1
1 1 1
0 0.976806 0.941039
0 0.976623 0.941024
0 0.975143 0.940887
0 0.968643 0.940291
0.671351 0.9523 0.938933
0.938079 0.938094 0.938079
1 0.931273 0.93846
1 1 1
1 1 1
0.176608 1 0.938537
0.176608 1 0.938537
0.176623 1 0.938537
0.176638 1 0.938521
0.657954 1 0.937758
0.90573 1 0.937072
1 1 0.937469
1 1 1
1 1 1
1 1 1
1 1 1
1 1 1
1 1 1
1 1 1
1 1 1
1 1 1
1 1 1
1 1 1
1 1 1
1 1 1
1 1 1
1 1 1
1 1 1
1 1 1
1 1 1
1 1 1
1 1 1
0 0.116381 1
0 0.113039 1
0.225452 0.0786297 1
0.566934 0 1
0.925017 0 1
1 0 1
1 0.314626 1
1 1 1
1 1 1
0 0.147158 1
0 0.144778 1
0.218753 0.123125 1
0.565057 0 1
0.92401 0 1
1 0 1
1 0.314641 1
1 1 1
1 1 1
0 0.270573 1
0 0.269551 1
0.152636 0.261143 1
0.550332 0.216632 1
0.916213 0 1
1 0 1
1 0.314717 1
1 1 1
1 1 1
0 0.512734 1
0 0.512306 1
0 0.508858 1
0.471778 0.492775 1
0.878248 0.449531 1
1 0.411597 1
1 0.405493 1
1 1 1
1 1 1
0 0.811887 1
0 0.811658 1
0 0.809781 1
0 0.801389 1
0.771786 0.780133 1
1 0.762112 1
1 0.755764 1
1 1 1
1 1 1
0 0.97554 1
0 0.975341 1
0 0.9738 1
0 0.967407 1
0.67689 0.951705 1
0.934462 0.937972 1
1 0.931243 1
1 1 1
1 1 1
0.278904 1 1
0.278904 1 1
0.278904 1 1
0.278935 1 1
0.662242 1 1
0.902358 1 1
1 1 1
1 1 1
1 1 1
1 1 1
1 1 1
1 1 1
1 1 1
1 1 1
1 1 1
1 1 1
1 1 1
1 1 1
1 1 1
1 1 1
1 1 1
1 1 1
1 1 1
1 1 1
1 1 1
1 1 1
1 1 1
0.956451 0.961715 1
0.956451 0.961715 1
0.956451 0.961715 1
0.956451 0.961715 1
0.956451 0.961715 1
0.956451 0.961715 1
1 0.959213 1
1 1 1
1 1 1
0.956451 0.961715 1
0.956451 0.961715 1
0.956451 0.961715 1
0.956451 0.961715 1
0.956451 0.961715 1
0.956451 0.961715 1
1 0.959213 1
1 1 1
1 1 1
0.956451 0.961715 1
0.956451 0.961715 1
0.956451 0.961715 1
0.956451 0.961715 1
0.956451 0.961715 1
0.956451 0.961715 1
1 0.959213 1
1 1 1
1 1 1
0.956451 0.961715 1
0.956451 0.961715 1
0.956451 0.961715 1
0.956451 0.961715 1
0.956451 0.961715 1
0.956451 0.961715 1
1 0.959213 1
1 1 1
1 1 1
0.956451 0.961715 1
0.956451 0.961715 1
0.956451 0.961715 1
0.956451 0.961715 1
0.956451 0.961715 1
0.956451 0.961715 1
1 0.959213 1
1 1 1
1 1 1
0.956451 0.961715 1
0.956451 0.961715 1
0.956451 0.961715 1
0.956451 0.961715 1
0.956451 0.961715 1
0.956451 0.961715 1
1 0.959213 1
1 1 1
1 1 1
0.940215 1 1
0.940215 1 1
0.940215 1 1
0.94023 1 1
0.940215 1 1
0.940215 1 1
0.999893 1 1
1 1 1
1 1 1
1 1 1
1 1 1
1 1 1
1 1 1
1 1 1
1 1 1
1 1 1
1 1 1
1 1 1
1 1 1
1 1 1
1 1 1
1 1 1
1 1 1
1 1 1
1 1 1
1 1 1
1 1 1
0.956451 0.961715 1
0.956451 0.961715 1
0.956451 0.961715 1
0.956451 0.961715 1
0.956451 0.961715 1
0.956451 0.961715 1
1 0.959304 1
1 1 1
1 1 1
0.956451 0.961715 1
0.956451 0.961715 1
0.956451 0.961715 1
0.956451 0.961715 1
0.956451 0.961715 1
0.956451 0.961715 1
1 0.959304 1
1 1 1
1 1 1
0.956451 0.961715 1
0.956451 0.961715 1
0.956451 0.961715 1
0.956451 0.961715 1
0.956451 0.961715 1
0.956451 0.961715 1
1 0.959304 1
1 1 1
1 1 1
0.956451 0.961715 1
0.956451 0.961715 1
0.956451 0.961715 1
0.956451 0.961715 1
0.956451 0.961715 1
0.956451 0.961715 1
1 0.959304 1
1 1 1
1 1 1
0.956451 0.961715 1
0.956451 0.961715 1
0.956451 0.961715 1
0.956451 0.961715 1
0.956451 0.961715 1
0.956451 0.961715 1
1 0.959304 1
1 1 1
1 1 1
0.956451 0.961715 1
0.956451 0.961715 1
0.956451 0.961715 1
0.956451 0.961715 1
0.956451 0.961715 1
0.956451 0.961715 1
1 0.959319 1
1 1 1
1 1 1
0.940246 1 1
0.940246 1 1
0.940246 1 1
0.940246 1 1
0.940246 1 1
0.940246 1 1
1 1 1
1 1 1
1 1 1
1 1 1
1 1 1
1 1 1
1 1 1
1 1 1
1 1 1
1 1 1
1 1 1
1 1 1
1 1 1
1 1 1
1 1 1
1 1 1
1 1 1
1 1 1
1 1 1
1 1 1
1 1 1
