portable_config/luts/ACES_1.3_Rec.2020_ST2084_2000nit_to_Rec.709.cube
TITLE "Generated by Resolve"
LUT_3D_SIZE 5
0 0 0
0.297627 0 0
0.951156 0 0.0550851
1 0.21857 0.521508
1 1 1
0 0.255329 0
0.251011 0.245029 0
0.94107 0 0
1 0.218662 0.521538
1 1 1
0 0.813428 0
0 0.81146 0
0.800076 0.780362 0
1 0.751659 0.500053
1 1 1
0.272084 1 0.632242
0.272084 1 0.632242
0.678935 1 0.634333
1 1 0.73637
1 1 1
1 1 1
1 1 1
1 1 1
1 1 1
1 1 1
0 0 0.254749
0.292134 0 0.251362
0.950042 0 0.249546
1 0.218601 0.521523
1 1 1
0 0.254795 0.244923
0.244511 0.244526 0.244511
0.94136 0 0.244816
1 0.218708 0.521569
1 1 1
0 0.813306 0.144778
0 0.811337 0.14519
0.798779 0.780255 0.152682
1 0.751659 0.500069
1 1 1
0.272114 1 0.632258
0.272114 1 0.632258
0.678996 1 0.634348
1 1 0.736385
1 1 1
1 1 1
1 1 1
1 1 1
1 1 1
1 1 1
0 0 0.814817
0.179248 0 0.813214
0.932738 0 0.80354
1 0.217609 0.803464
1 1 1
0 0.247272 0.810269
0 0.236957 0.809293
0.924041 0 0.80174
1 0.2177 0.803311
1 1 1
0 0.811414 0.780438
0 0.809445 0.780301
0.778485 0.7785 0.778485
1 0.753216 0.785306
1 1 1
0.226551 1 0.798413
0.226566 1 0.798367
0.668086 1 0.797635
1 1 0.802945
1 1 1
1 1 1
1 1 1
1 1 1
1 1 1
1 1 1
0 0.116381 1
0.225452 0.0786297 1
0.925017 0 1
1 0.314626 1
1 1 1
0 0.270573 1
0.152636 0.261143 1
0.916213 0 1
1 0.314717 1
1 1 1
0 0.811887 1
0 0.809781 1
0.771786 0.780133 1
1 0.755764 1
1 1 1
0.278904 1 1
0.278904 1 1
0.662242 1 1
1 1 1
1 1 1
1 1 1
1 1 1
1 1 1
1 1 1
1 1 1
0.956451 0.961715 1
0.956451 0.961715 1
0.956451 0.961715 1
1 0.959304 1
1 1 1
0.956451 0.961715 1
0.956451 0.961715 1
0.956451 0.961715 1
1 0.959304 1
1 1 1
0.956451 0.961715 1
0.956451 0.961715 1
0.956451 0.961715 1
1 0.959304 1
1 1 1
0.940246 1 1
0.940246 1 1
0.940246 1 1
1 1 1
1 1 1
1 1 1
1 1 1
1 1 1
1 1 1
1 1 1
