portable_config/luts/ACES_1.3_Rec.2020_ST2084_2000nit_to_Rec.709.cube
TITLE "Generated by Resolve"
LUT_3D_SIZE 65
0 0 0
0 0 0
0 0 0
0 0 0
0 0 0
0.0471046 0 0
0.0746014 0 0
0.0999466 0 0
0.119554 0 0
0.13756 0 0
0.156634 0 0
0.176944 0 0
0.198627 0 0
0.221668 0 0
0.245792 0 0
0.271092 0 0
0.297627 0 0
0.32575 0 0
0.355978 0 0.0110323
0.388571 0 0.0157931
0.423804 0 0.0189822
0.461936 0 0.0213169
0.502953 0 0.0229343
0.545419 0 0.0242313
0.589075 0 0.0256809
0.633814 0 0.0274815
0.67953 0 0.0296941
0.726055 0 0.0324254
0.773236 0 0.0356909
0.820951 0 0.0395209
0.867765 0 0.0439307
0.91136 0 0.0491035
0.951156 0 0.0550851
0.986511 0 0.0618296
1 0 0.0691844
1 0 0.0770428
1 0 0.0853895
1 0 0.0941939
1 0 0.10341
1 0 0.122713
1 0 0.14435
1 0 0.168826
1 0 0.196536
1 0 0.228458
1 0 0.265995
1 0 0.311543
1 0 0.368185
1 0 0.438621
1 0.21857 0.521508
1 0.393408 0.62002
1 0.557015 0.736614
1 0.744289 0.850401
1 0.891478 0.940002
1 0.985245 0.998428
1 1 1
1 1 1
1 1 1
1 1 1
1 1 1
1 1 1
1 1 1
1 1 1
1 1 1
1 1 1
1 1 1
0 0 0
0 0 0
0 0 0
0 0 0
0.0103304 0 0
0.0486915 0 0
0.0750896 0 0
0.100069 0 0
0.119341 0 0
0.137514 0 0
0.156634 0 0
0.176944 0 0
0.198627 0 0
0.221653 0 0
0.245777 0 0
0.271061 0 0
0.297581 0 0
0.325704 0 0
0.355932 0 0.0107424
0.388525 0 0.0155642
0.423758 0 0.0187686
0.461906 0 0.0211185
0.502922 0 0.0227665
0.545388 0 0.0240787
0.589044 0 0.0255589
0.633799 0 0.0273747
0.679515 0 0.0296178
0.726024 0 0.0323491
0.77322 0 0.0356298
0.820935 0 0.0394751
0.86775 0 0.0438697
0.91136 0 0.049073
0.951156 0 0.0550546
0.986511 0 0.0617838
1 0 0.0691539
1 0 0.0770275
1 0 0.0853742
1 0 0.0941939
1 0 0.10341
1 0 0.122713
1 0 0.144335
1 0 0.168826
1 0 0.196536
1 0 0.228458
1 0 0.265995
1 0 0.311543
1 0 0.368185
1 0 0.438621
1 0.21857 0.521508
1 0.393408 0.62002
1 0.557015 0.736614
1 0.744289 0.850401
1 0.891478 0.940002
1 0.985245 0.998428
1 1 1
1 1 1
1 1 1
1 1 1
1 1 1
1 1 1
1 1 1
1 1 1
1 1 1
1 1 1
1 1 1
0 0.0179294 0
0 0.0179294 0
0.0175631 0.0172274 0
0.0364538 0.0149081 0
0.0451972 0.0133364 0
0.0576638 0.00634775 0
0.0771191 0 0
0.0999771 0 0
0.118608 0 0
0.137133 0 0
0.15639 0 0
0.176745 0 0
0.198428 0 0
0.221469 0 0
0.245594 0 0
0.270878 0 0
0.297398 0 0
0.325521 0 0
0.355764 0 0.00923171
0.388373 0 0.0146792
0.423621 0 0.0180972
0.461784 0 0.0205539
0.502815 0 0.0222629
0.545296 0 0.0236362
0.588968 0 0.0251774
0.633722 0 0.0270542
0.679454 0 0.0293584
0.725978 0 0.0321202
0.773175 0 0.0354314
0.82089 0 0.0393072
0.867704 0 0.0437324
0.911315 0 0.0489357
0.95111 0 0.0549325
0.986481 0 0.0616922
1 0 0.0690776
1 0 0.0769513
1 0 0.0853132
1 0 0.0941634
1 0 0.10341
1 0 0.122713
1 0 0.144335
1 0 0.168826
1 0 0.196536
1 0 0.228458
1 0 0.265995
1 0 0.311543
1 0 0.368185
1 0 0.438621
1 0.21857 0.521508
1 0.393408 0.62002
1 0.557015 0.736614
1 0.744289 0.850401
1 0.891493 0.940002
1 0.985245 0.998428
1 1 1
1 1 1
1 1 1
1 1 1
1 1 1
1 1 1
1 1 1
1 1 1
1 1 1
1 1 1
1 1 1
0 0.0357977 0
0 0.0358129 0
0 0.035523 0
0.035172 0.0343481 0
0.0517281 0.0328374 0
0.0648814 0.0310369 0
0.0800946 0.0277409 0
0.0986648 0.0201572 0
0.117159 0 0
0.136065 0 0
0.155581 0 0
0.176089 0 0
0.197879 0 0
0.220981 0 0
0.245151 0 0
0.270481 0 0
0.297032 0 0
0.3252 0 0
0.355474 0 0.00527962
0.388113 0 0.013077
0.423377 0 0.0169528
0.46157 0 0.0196231
0.502632 0 0.0214542
0.545129 0 0.0229191
0.58883 0 0.0245518
0.6336 0 0.0265049
0.679347 0 0.0288701
0.725872 0 0.0317082
0.773083 0 0.0350652
0.820813 0 0.0389868
0.867643 0 0.0434577
0.911254 0 0.0487068
0.951064 0 0.0547341
0.986419 0 0.0615091
1 0 0.068925
1 0 0.0768292
1 0 0.0852064
1 0 0.0940566
1 0 0.10341
1 0 0.122713
1 0 0.144335
1 0 0.168826
1 0 0.196536
1 0 0.228458
1 0 0.265995
1 0 0.311543
1 0 0.368185
1 0 0.438621
1 0.21857 0.521508
1 0.393408 0.62002
1 0.557015 0.736614
1 0.744289 0.850401
1 0.891493 0.940002
1 0.985245 0.998428
1 1 1
1 1 1
1 1 1
1 1 1
1 1 1
1 1 1
1 1 1
1 1 1
1 1 1
1 1 1
1 1 1
0 0.0487068 0
0 0.0487068 0
0 0.0485084 0
0.0257572 0.0477455 0
0.0478828 0.0467079 0
0.0645762 0.045304 0
0.0811322 0.043183 0
0.0979171 0.0400549 0
0.115801 0.0350958 0
0.134783 0.0264591 0
0.154528 0 0
0.175219 0 0
0.197131 0 0
0.22031 0 0
0.244541 0 0
0.269932 0 0
0.296544 0 0
0.324742 0 0
0.355062 0 0
0.387747 0 0.0105287
0.423041 0 0.0152743
0.461265 0 0.0182498
0.502342 0 0.0202029
0.544884 0 0.0217746
0.588617 0 0.0235142
0.633402 0 0.0255894
0.679164 0 0.0280613
0.725719 0 0.0309911
0.772946 0 0.0344549
0.820691 0 0.0384527
0.867521 0 0.0429847
0.911147 0 0.0482948
0.950957 0 0.0543832
0.986343 0 0.0612345
1 0 0.0686809
1 0 0.0766155
1 0 0.0850233
1 0 0.093904
1 0 0.103365
1 0 0.122713
1 0 0.144335
1 0 0.168811
1 0 0.196536
1 0 0.228458
1 0 0.265995
1 0 0.311543
1 0 0.368185
1 0 0.438621
1 0.21857 0.521508
1 0.393408 0.62002
1 0.557015 0.736614
1 0.744289 0.850401
1 0.891493 0.940002
1 0.985245 0.998428
1 1 1
1 1 1
1 1 1
1 1 1
1 1 1
1 1 1
1 1 1
1 1 1
1 1 1
1 1 1
1 1 1
0 0.0610513 0
0 0.0610513 0
0 0.0608835 0
0 0.0603342 0
0.040116 0.0595865 0
0.0600137 0.0585489 0
0.078294 0.0570077 0
0.0961471 0.0548409 0
0.114199 0.0518349 0
0.133165 0.0474708 0
0.153109 0.0408637 0
0.174014 0.0294499 0
0.196094 0 0
0.219394 0 0
0.243702 0 0
0.269154 0 0
0.295827 0 0
0.324086 0 0
0.354452 0 0
0.387182 0 0
0.422538 0 0.0121004
0.460807 0 0.0158083
0.501945 0 0.0180667
0.544518 0 0.0198367
0.588281 0 0.0218051
0.633112 0 0.0240787
0.678904 0 0.0267338
0.725475 0 0.0298466
0.772732 0 0.0334783
0.820493 0 0.0376287
0.867353 0 0.0422827
0.910994 0 0.0476997
0.95082 0 0.0538796
0.986206 0 0.0607919
1 0 0.0683146
1 0 0.0762951
1 0 0.0847486
1 0 0.0936751
1 0 0.103182
1 0 0.122713
1 0 0.144335
1 0 0.168811
1 0 0.196536
1 0 0.228458
1 0 0.265995
1 0 0.311543
1 0 0.368185
1 0 0.438621
1 0.21857 0.521508
1 0.393408 0.62002
1 0.557015 0.736614
1 0.744289 0.850401
1 0.891493 0.940002
1 0.985245 0.998428
1 1 1
1 1 1
1 1 1
1 1 1
1 1 1
1 1 1
1 1 1
1 1 1
1 1 1
1 1 1
1 1 1
0 0.0742504 0
0 0.0742504 0
0 0.0740978 0
0 0.0736858 0
0.0221714 0.0731365 0
0.0519722 0.0723583 0
0.0729992 0.0712139 0
0.0923629 0.0696117 0
0.11136 0.0674601 0
0.130816 0.0645151 0
0.151049 0.0604562 0
0.172259 0.0547036 0
0.194598 0.0460212 0
0.218067 0.0302892 0
0.242512 0 0
0.268055 0 0
0.29482 0 0
0.323156 0 0
0.353597 0 0
0.386404 0 0
0.42182 0 0
0.460151 0 0.0106661
0.50135 0 0.0139925
0.543999 0 0.0163882
0.587823 0 0.0188754
0.6327 0 0.0216068
0.678538 0 0.0246586
0.725155 0 0.0281071
0.772442 0 0.0320287
0.820218 0 0.036408
0.867109 0 0.0412451
0.91078 0 0.0468299
0.950637 0 0.0531624
0.986038 0 0.0601968
1 0 0.0678111
1 0 0.0758679
1 0 0.0843671
1 0 0.0933394
1 0 0.102907
1 0 0.122576
1 0 0.144335
1 0 0.168811
1 0 0.196521
1 0 0.228458
1 0 0.265995
1 0 0.311543
1 0 0.368185
1 0 0.438621
1 0.21857 0.521508
1 0.393408 0.62002
1 0.557015 0.736614
1 0.744289 0.850401
1 0.891493 0.940002
1 0.985245 0.998428
1 1 1
1 1 1
1 1 1
1 1 1
1 1 1
1 1 1
1 1 1
1 1 1
1 1 1
1 1 1
1 1 1
0 0.0881361 0
0 0.0881361 0
0 0.0879835 0
0 0.0876783 0
0 0.0872511 0
0.0370794 0.0866407 0
0.0648203 0.0857557 0
0.0866407 0.0845197 0
0.107027 0.082887 0
0.127367 0.0806897 0
0.148196 0.07776 0
0.169848 0.0738079 0
0.192569 0.0684215 0
0.216327 0.0608225 0
0.240955 0.0493782 0
0.266636 0.0262303 0
0.293492 0 0
0.321935 0 0
0.352453 0 0
0.385351 0 0
0.420859 0 0
0.459281 0 0
0.500572 0 0
0.543297 0 0.00863661
0.587182 0 0.0134585
0.632136 0 0.0174563
0.678035 0 0.0213779
0.724697 0 0.0254978
0.77203 0 0.0299077
0.819867 0 0.0346685
0.866789 0 0.0397955
0.910491 0 0.0456245
0.950362 0 0.0521401
0.985794 0 0.0593423
1 0 0.0670939
1 0 0.0752422
1 0 0.0838483
1 0 0.0928817
1 0 0.10251
1 0 0.122286
1 0 0.144305
1 0 0.168811
1 0 0.196521
1 0 0.228458
1 0 0.265995
1 0 0.311543
1 0 0.368185
1 0 0.438621
1 0.21857 0.521508
1 0.393423 0.62002
1 0.557015 0.736614
1 0.744289 0.850401
1 0.891493 0.940002
1 0.985245 0.998428
1 1 1
1 1 1
1 1 1
1 1 1
1 1 1
1 1 1
1 1 1
1 1 1
1 1 1
1 1 1
1 1 1
0 0.102678 0
0 0.102647 0
0 0.102525 0
0 0.102281 0
0 0.101946 0
0 0.101457 0
0.0513161 0.10074 0
0.0782788 0.0997635 0
0.100923 0.0984665 0
0.122621 0.0967422 0
0.14435 0.0944839 0
0.166659 0.0915084 0
0.189883 0.0875715 0
0.214069 0.0823529 0
0.238987 0.0753948 0
0.264866 0.0656138 0
0.291844 0.0502632 0
0.320394 0 0
0.351019 0 0
0.384024 0 0
0.419623 0 0
0.458137 0 0
0.499535 0 0
0.542367 0 0
0.586358 0 0
0.631403 0 0.00701915
0.677378 0 0.0154421
0.724117 0 0.0212558
0.771511 0 0.0267033
0.819394 0 0.0321202
0.866361 0 0.0377203
0.910109 0 0.0439307
0.950027 0 0.0507362
0.985473 0 0.0581826
1 0 0.0661021
1 0 0.0744182
1 0 0.0831311
1 0 0.092256
1 0 0.101976
1 0 0.121874
1 0 0.143999
1 0 0.168811
1 0 0.196521
1 0 0.228458
1 0 0.265995
1 0 0.311543
1 0 0.3682
1 0 0.438621
1 0.21857 0.521508
1 0.393423 0.62002
1 0.557015 0.736629
1 0.744289 0.850401
1 0.891493 0.940002
1 0.985245 0.998428
1 1 1
1 1 1
1 1 1
1 1 1
1 1 1
1 1 1
1 1 1
1 1 1
1 1 1
1 1 1
1 1 1
0 0.11809 0
0 0.118059 0
0 0.117952 0
0 0.117754 0
0 0.117479 0
0 0.117082 0
0.0113222 0.116503 0
0.065156 0.115709 0
0.0921798 0.114656 0
0.11606 0.113268 0
0.139147 0.111452 0
0.162402 0.109102 0
0.186358 0.106035 0
0.211124 0.102068 0
0.2365 0.0970016 0
0.262669 0.090425 0
0.289845 0.0815747 0
0.318517 0.0687114 0
0.349264 0.0458534 0
0.382361 0 0
0.418082 0 0
0.456703 0 0
0.498222 0 0
0.541192 0 0
0.58529 0 0
0.630442 0 0
0.676524 0 0
0.723354 0 0.0125429
0.770825 0 0.0214084
0.818769 0 0.028275
0.865812 0 0.0347295
0.909621 0 0.0415351
0.949569 0 0.0488136
0.985061 0 0.0565957
1 0 0.0648051
1 0 0.0733196
1 0 0.0821851
1 0 0.0914473
1 0 0.101228
1 0 0.121324
1 0 0.143587
1 0 0.168612
1 0 0.196521
1 0 0.228458
1 0 0.265995
1 0 0.311543
1 0 0.3682
1 0 0.438621
1 0.21857 0.521508
1 0.393423 0.620035
1 0.557031 0.736629
1 0.744305 0.850401
1 0.891493 0.940002
1 0.985245 0.998428
1 1 1
1 1 1
1 1 1
1 1 1
1 1 1
1 1 1
1 1 1
1 1 1
1 1 1
1 1 1
1 1 1
0 0.134432 0
0 0.134401 0
0 0.13431 0
0 0.134142 0
0 0.133928 0
0 0.133593 0
0 0.13312 0
0.0391394 0.132464 0
0.0790265 0.131594 0
0.106905 0.130449 0
0.132128 0.128954 0
0.156756 0.127047 0
0.18172 0.124575 0
0.207248 0.121416 0
0.23328 0.117449 0
0.259937 0.112459 0
0.287434 0.106111 0
0.316304 0.0977188 0
0.347173 0.085893 0
0.380377 0.067277 0
0.416205 0.0145571 0
0.454948 0 0
0.496605 0 0
0.539696 0 0
0.583947 0 0
0.629236 0 0
0.675425 0 0
0.722362 0 0
0.76994 0 0.00802625
0.817975 0 0.0217746
0.86511 0 0.0301976
0.90898 0 0.0381323
0.948989 0 0.0461585
0.984527 0 0.0544594
1 0 0.063035
1 0 0.0718395
1 0 0.0809339
1 0 0.0903639
1 0 0.100221
1 0 0.120577
1 0 0.143038
1 0 0.168185
1 0 0.196506
1 0 0.228458
1 0 0.265995
1 0 0.311543
1 0 0.3682
1 0 0.438621
1 0.218585 0.521508
1 0.393423 0.620035
1 0.557031 0.736629
1 0.744305 0.850401
1 0.891493 0.940017
1 0.98526 0.998428
1 1 1
1 1 1
1 1 1
1 1 1
1 1 1
1 1 1
1 1 1
1 1 1
1 1 1
1 1 1
1 1 1
0 0.151827 0
0 0.151812 0
0 0.15172 0
0 0.151598 0
0 0.151415 0
0 0.151141 0
0 0.150729 0
0 0.150179 0
0.0558785 0.149462 0
0.093492 0.148501 0
0.122469 0.147265 0
0.149233 0.145678 0
0.175616 0.143633 0
0.202197 0.141054 0
0.229053 0.137835 0
0.256428 0.133837 0
0.284474 0.128893 0
0.31368 0.122621 0
0.344762 0.114351 0
0.378088 0.102968 0
0.414008 0.0860456 0
0.452857 0.0548714 0
0.494636 0 0
0.537881 0 0
0.582284 0 0
0.62771 0 0
0.674052 0 0
0.721126 0 0
0.768826 0 0
0.816983 0 0
0.86421 0 0.0223697
0.908171 0 0.03299
0.948257 0 0.042359
0.983841 0 0.0514992
1 0 0.0606699
1 0 0.0698711
1 0 0.0792706
1 0 0.0889448
1 0 0.098909
1 0 0.11957
1 0 0.14229
1 0 0.16762
1 0 0.196078
1 0 0.228458
1 0 0.265995
1 0 0.311543
1 0 0.3682
1 0 0.438621
1 0.218585 0.521508
1 0.393439 0.620035
1 0.557031 0.736629
1 0.744305 0.850416
1 0.891493 0.940017
1 0.98526 0.998428
1 1 1
1 1 1
1 1 1
1 1 1
1 1 1
1 1 1
1 1 1
1 1 1
1 1 1
1 1 1
1 1 1
0 0.170443 0
0 0.170413 0
0 0.170352 0
0 0.170245 0
0 0.170092 0
0 0.169863 0
0 0.169512 0
0 0.169055 0
0 0.168444 0
0.0713817 0.167636 0
0.108583 0.166598 0
0.138979 0.165255 0
0.167529 0.163546 0
0.195575 0.161395 0
0.223514 0.158724 0
0.251789 0.155444 0
0.280598 0.151415 0
0.310445 0.14641 0
0.341909 0.140047 0
0.375463 0.131731 0
0.411505 0.12047 0
0.450446 0.104234 0
0.492332 0.0777295 0
0.535698 0 0
0.580255 0 0
0.625849 0 0
0.672358 0 0
0.719585 0 0
0.767437 0 0
0.815717 0 0
0.863081 0 0
0.907149 0 0.024033
0.947326 0 0.0366827
0.982986 0 0.0473487
1 0 0.057435
1 0 0.0672618
1 0 0.0771038
1 0 0.0870985
1 0 0.097322
1 0 0.118257
1 0 0.141314
1 0 0.166873
1 0 0.195514
1 0 0.22826
1 0 0.265995
1 0 0.311543
1 0 0.3682
1 0 0.438636
1 0.218601 0.521523
1 0.393439 0.620035
1 0.557046 0.736645
1 0.74432 0.850416
1 0.891508 0.940017
1 0.98526 0.998428
1 1 1
1 1 1
1 1 1
1 1 1
1 1 1
1 1 1
1 1 1
1 1 1
1 1 1
1 1 1
1 1 1
0 0.190188 0
0 0.190158 0
0 0.190112 0
0 0.190036 0
0 0.189899 0
0 0.1897 0
0 0.18941 0
0 0.189014 0
0 0.188479 0
0 0.187793 0
0.0869306 0.186908 0
0.124651 0.185779 0
0.156741 0.184329 0
0.186954 0.182498 0
0.216388 0.180255 0
0.245777 0.177508 0
0.275547 0.174151 0
0.306249 0.170001 0
0.338415 0.164828 0
0.372396 0.158267 0
0.408682 0.149767 0
0.447745 0.138338 0
0.489708 0.122347 0
0.533196 0.0988327 0
0.577874 0.0535592 0
0.623621 0 0
0.670298 0 0
0.717708 0 0
0.765728 0 0
0.81416 0 0
0.861692 0 0
0.905898 0 0
0.946181 0 0.0271916
0.981933 0 0.0413672
1 0 0.0530404
1 0 0.0638132
1 0 0.0742962
1 0 0.0847639
1 0 0.0953384
1 0 0.116579
1 0 0.140063
1 0 0.165927
1 0 0.194797
1 0 0.227695
1 0 0.26598
1 0 0.311543
1 0 0.3682
1 0 0.438636
1 0.218601 0.521523
1 0.393454 0.62005
1 0.557046 0.736645
1 0.74432 0.850416
1 0.891508 0.940017
1 0.98526 0.998428
1 1 1
