portable_config/luts/ACES_1.3_Rec.2020_ST2084_2000nit_to_Rec.709_ReferenceGamutCompress.cube
TITLE "Generated by Resolve"
LUT_3D_SIZE 5
0 0 0
0.297322 0 0.0342107
0.946761 0 0.167941
1 0.885481 0.851179
1 1 1
0 0.255238 0
0.250996 0.245029 0
0.938048 0 0.160815
1 0.885496 0.851194
1 1 1
0 0.812604 0
0 0.811139 0
0.79968 0.780331 0
1 0.899535 0.850706
1 1 1
0.799924 1 0.854047
0.799924 1 0.854047
0.825956 1 0.854185
1 1 0.870924
1 1 1
1 1 1
1 1 1
1 1 1
1 1 1
1 1 1
0 0.0345617 0.254505
0.291676 0 0.251453
0.945373 0 0.253178
1 0.885481 0.851179
1 1 1
0 0.254734 0.244923
0.244511 0.244526 0.244511
0.937911 0 0.2486
1 0.885496 0.851209
1 1 1
0 0.812512 0.146334
0 0.811048 0.145953
0.798764 0.780255 0.153811
1 0.899535 0.850721
1 1 1
0.799939 1 0.854047
0.799939 1 0.854047
0.825956 1 0.854185
1 1 0.870939
1 1 1
1 1 1
1 1 1
1 1 1
1 1 1
1 1 1
0 0.174517 0.812146
0.172427 0.16199 0.81117
0.928069 0 0.802716
1 0.885481 0.872755
1 1 1
0 0.266117 0.809247
0.079057 0.259037 0.808515
0.921889 0 0.801328
1 0.885496 0.87274
1 1 1
0 0.810636 0.780438
0 0.809186 0.780285
0.778485 0.7785 0.778485
1 0.899687 0.872297
1 1 1
0.79881 1 0.870558
0.79881 1 0.870542
0.824994 1 0.870497
1 1 0.878492
1 1 1
1 1 1
1 1 1
1 1 1
1 1 1
1 1 1
0.797375 0.858579 1
0.803586 0.858213 1
0.87097 0.854154 1
1 0.859693 1
1 1 1
0.795926 0.861494 1
0.802121 0.861128 1
0.869627 0.857053 1
1 0.859709 1
1 1 1
0.781842 0.891371 1
0.787839 0.891035 1
0.855787 0.887083 1
1 0.880095 1
1 1 1
0.793301 1 1
0.793301 1 1
0.818494 1 1
1 1 1
1 1 1
1 1 1
1 1 1
1 1 1
1 1 1
1 1 1
1 1 1
1 1 1
1 1 1
1 1 1
1 1 1
1 1 1
1 1 1
1 1 1
1 1 1
1 1 1
1 1 1
1 1 1
1 1 1
1 1 1
1 1 1
1 1 1
1 1 1
1 1 1
1 1 1
1 1 1
1 1 1
1 1 1
1 1 1
1 1 1
1 1 1
