portable_config/luts/ACES_1.3_Rec.2020_ST2084_2000nit_to_Rec.709_ReferenceGamutCompress.cube
TITLE "Generated by Resolve"
LUT_3D_SIZE 9
0 0 0
0.1187 0 0
0.297322 0 0.0342107
0.58996 0 0.0766766
0.946761 0 0.167941
1 0.415869 0.395895
1 0.885481 0.851179
1 1 1
1 1 1
0 0.102678 0
0.100923 0.0984665 0
0.291264 0.0507057 0.0247349
0.586801 0 0.0742046
0.945556 0 0.166796
1 0.418036 0.395743
1 0.885481 0.851179
1 1 1
1 1 1
0 0.255238 0
0 0.254215 0
0.250996 0.245029 0
0.567224 0.196155 0.037644
0.938048 0 0.160815
1 0.448463 0.393576
1 0.885496 0.851194
1 1 1
1 1 1
0 0.505547 0
0 0.505196 0
0 0.5019 0
0.497078 0.485298 0
0.899489 0.439338 0.107332
1 0.532876 0.385565
1 0.887388 0.851179
1 1 1
1 1 1
0 0.812604 0
0 0.812436 0
0 0.811139 0
0 0.803006 0
0.79968 0.780331 0
1 0.761944 0.35581
1 0.899535 0.850706
1 1 1
1 1 1
0 0.974151 0.355703
0 0.974029 0.355703
0 0.973098 0.355779
0 0.969238 0.356283
0.702754 0.954681 0.360891
0.960952 0.9402 0.386007
1 0.938003 0.84802
1 1 1
1 1 1
0.799924 1 0.854047
0.799924 1 0.854047
0.799924 1 0.854047
0.799939 1 0.854047
0.825956 1 0.854185
0.9131 1 0.855406
1 1 0.870924
1 1 1
1 1 1
1 1 1
1 1 1
1 1 1
1 1 1
1 1 1
1 1 1
1 1 1
1 1 1
1 1 1
1 1 1
1 1 1
1 1 1
1 1 1
1 1 1
1 1 1
1 1 1
1 1 1
1 1 1
0 0 0.10251
0.11754 0 0.101122
0.295094 0 0.099855
0.588846 0 0.106294
0.946334 0 0.180438
1 0.416434 0.397009
1 0.885481 0.851179
1 1 1
1 1 1
0 0.102419 0.0984054
0.0982528 0.0982681 0.0982528
0.292073 0.049073 0.0978866
0.586587 0 0.10454
0.945281 0 0.17937
1 0.418616 0.396811
1 0.885481 0.851179
1 1 1
1 1 1
0 0.255161 0.0785382
0 0.25417 0.0785687
0.250324 0.244968 0.0790875
0.568414 0.19559 0.087602
0.938231 0 0.173709
1 0.448966 0.394797
1 0.885496 0.851194
1 1 1
1 1 1
0 0.505531 0
0 0.50518 0
0 0.501884 0
0.49688 0.485283 0
0.899763 0.4392 0.12697
1 0.533104 0.388251
1 0.887388 0.851179
1 1 1
1 1 1
0 0.812589 0
0 0.812421 0
0 0.811139 0
0 0.803006 0
0.799603 0.780331 0
1 0.761913 0.360113
1 0.899535 0.850706
1 1 1
1 1 1
0 0.974136 0.35938
0 0.974014 0.35938
0 0.973098 0.359442
0 0.969238 0.35993
0.702678 0.954681 0.364416
0.960906 0.940185 0.389029
1 0.938003 0.84802
1 1 1
1 1 1
0.799939 1 0.854047
0.799924 1 0.854047
0.799939 1 0.854047
0.799939 1 0.854047
0.825956 1 0.854185
0.9131 1 0.855406
1 1 0.870939
1 1 1
1 1 1
1 1 1
1 1 1
1 1 1
1 1 1
1 1 1
1 1 1
1 1 1
1 1 1
1 1 1
1 1 1
1 1 1
1 1 1
1 1 1
1 1 1
1 1 1
1 1 1
1 1 1
1 1 1
0 0.0345617 0.254505
0.0949264 0 0.253819
0.291676 0 0.251453
0.579202 0 0.248875
0.945373 0 0.253178
1 0.415564 0.424887
1 0.885481 0.851179
1 1 1
1 1 1
0 0.10045 0.252491
0.0713359 0.0965896 0.252125
0.287175 0.0452125 0.250462
0.580118 0 0.248081
0.943984 0 0.252262
1 0.417807 0.424674
1 0.885481 0.851179
1 1 1
1 1 1
0 0.254734 0.244923
0 0.253697 0.244862
0.244511 0.244526 0.244511
0.570367 0.193652 0.243595
0.937911 0 0.2486
1 0.448463 0.422766
1 0.885496 0.851209
1 1 1
1 1 1
0 0.505364 0.219104
0 0.505013 0.219028
0 0.501717 0.219059
0.494774 0.485115 0.219242
0.900603 0.438575 0.225544
1 0.533104 0.416403
1 0.887388 0.851179
1 1 1
1 1 1
0 0.812512 0.146334
0 0.812345 0.146227
0 0.811048 0.145953
0 0.802915 0.147021
0.798764 0.780255 0.153811
1 0.761761 0.389487
1 0.899535 0.850721
1 1 1
1 1 1
0 0.97409 0.386435
0 0.973968 0.386435
0 0.973037 0.38645
0 0.969177 0.38677
0.701991 0.95462 0.390433
0.960449 0.940139 0.411612
1 0.938003 0.848035
1 1 1
1 1 1
0.799939 1 0.854047
0.799939 1 0.854047
0.799939 1 0.854047
0.799939 1 0.854047
0.825956 1 0.854185
0.9131 1 0.855406
1 1 0.870939
1 1 1
1 1 1
1 1 1
1 1 1
1 1 1
1 1 1
1 1 1
1 1 1
1 1 1
1 1 1
1 1 1
1 1 1
1 1 1
1 1 1
1 1 1
1 1 1
1 1 1
1 1 1
1 1 1
1 1 1
0 0.0765393 0.503777
0 0.0721447 0.503471
0.263615 0 0.50164
0.577203 0 0.497765
0.933349 0 0.494331
1 0.412818 0.522408
1 0.885878 0.851377
1 1 1
1 1 1
0 0.111345 0.502861
0 0.108705 0.502602
0.259251 0.0751354 0.500969
0.575677 0 0.497337
0.933028 0 0.493919
1 0.415274 0.522164
1 0.885878 0.851377
1 1 1
1 1 1
0 0.252079 0.497993
0 0.251164 0.497856
0.212955 0.242283 0.497093
0.561578 0.190875 0.494835
0.930236 0 0.49221
1 0.445716 0.520211
1 0.885893 0.851392
1 1 1
1 1 1
0 0.504524 0.485115
0 0.504173 0.485069
0 0.500877 0.484901
0.48426 0.484306 0.484276
0.899306 0.436652 0.483955
1 0.532341 0.515785
1 0.88777 0.851377
1 1 1
1 1 1
0 0.811978 0.463722
0 0.81181 0.463676
0 0.810529 0.463523
0 0.80238 0.463447
0.79321 0.779751 0.46424
1 0.761212 0.497871
1 0.899855 0.850904
1 1 1
1 1 1
0 0.973816 0.497169
0 0.973693 0.497154
0 0.972778 0.497063
0 0.968917 0.49688
0.698375 0.954376 0.498146
0.958068 0.93991 0.508644
1 0.938155 0.848203
1 1 1
1 1 1
0.799954 1 0.854063
0.799954 1 0.854063
0.799954 1 0.854063
0.799954 1 0.854063
0.826001 1 0.8542
0.91313 1 0.855421
1 1 0.870954
1 1 1
1 1 1
1 1 1
1 1 1
1 1 1
1 1 1
1 1 1
1 1 1
1 1 1
1 1 1
1 1 1
1 1 1
1 1 1
1 1 1
1 1 1
1 1 1
1 1 1
1 1 1
1 1 1
1 1 1
0 0.174517 0.812146
0 0.172992 0.812009
0.172427 0.16199 0.81117
0.546639 0 0.80766
0.928069 0 0.802716
1 0.392187 0.794766
1 0.885481 0.872755
1 1 1
1 1 1
0 0.191485 0.811658
0 0.190112 0.811536
0.163043 0.180438 0.810742
0.544686 0.0885634 0.80734
0.927214 0 0.802502
1 0.395895 0.794629
1 0.885481 0.872755
1 1 1
1 1 1
0 0.266117 0.809247
0 0.265232 0.80914
0.079057 0.259037 0.808515
0.53341 0.216419 0.805692
0.921889 0 0.801328
1 0.430152 0.79353
1 0.885496 0.87274
1 1 1
1 1 1
0 0.501534 0.798856
0 0.501152 0.79881
0 0.498466 0.798535
0.455116 0.482353 0.797162
0.886366 0.434791 0.794537
1 0.524208 0.790249
1 0.887419 0.872694
1 1 1
1 1 1
0 0.810636 0.780438
0 0.810483 0.780407
0 0.809186 0.780285
0 0.801022 0.779706
0.778485 0.7785 0.778485
1 0.759533 0.779263
1 0.899687 0.872297
1 1 1
1 1 1
0 0.972671 0.775692
0 0.972549 0.775677
0 0.971633 0.77557
0 0.967788 0.775219
0.682658 0.953292 0.774472
0.947494 0.938918 0.775433
1 0.93814 0.869764
1 1 1
1 1 1
0.79881 1 0.870558
0.79881 1 0.870558
0.79881 1 0.870542
0.79881 1 0.870512
0.824994 1 0.870497
0.912261 1 0.870863
1 1 0.878492
1 1 1
1 1 1
1 1 1
1 1 1
1 1 1
1 1 1
1 1 1
1 1 1
1 1 1
1 1 1
1 1 1
1 1 1
1 1 1
1 1 1
1 1 1
1 1 1
1 1 1
1 1 1
1 1 1
1 1 1
0.239384 0.418738 0.973617
0.257511 0.418189 0.973556
0.344961 0.414679 0.973205
0.538033 0.401404 0.971969
0.891218 0.350805 0.968429
1 0.321782 0.96556
1 0.883757 0.940948
1 1 1
1 1 1
0.232395 0.425345 0.973342
0.251194 0.424796 0.973281
0.340719 0.421347 0.97293
0.535714 0.408255 0.971725
0.890105 0.358618 0.968231
1 0.329213 0.965423
1 0.883772 0.940948
1 1 1
1 1 1
0.189593 0.458824 0.971893
0.213474 0.458335 0.971847
0.316899 0.455192 0.971527
0.523049 0.443259 0.970413
0.883803 0.398871 0.967132
1 0.370916 0.964492
1 0.883787 0.940948
1 1 1
1 1 1
0 0.555764 0.967269
0 0.555398 0.967239
0.205814 0.552972 0.966995
0.476478 0.543709 0.966125
0.861387 0.510201 0.963394
1 0.486397 0.961181
1 0.885725 0.940856
1 1 1
1 1 1
0 0.805295 0.952331
0 0.805097 0.952316
0 0.803723 0.952178
0.15639 0.798169 0.95169
0.768063 0.778073 0.950027
1 0.759319 0.948791
1 0.898314 0.94023
1 1 1
1 1 1
0 0.971496 0.940566
0 0.971374 0.940551
0 0.970489 0.940475
0 0.966644 0.940124
0.671351 0.9523 0.938933
0.938079 0.938094 0.938079
1 0.93785 0.93814
1 1 1
1 1 1
0.793973 1 0.937469
0.793973 1 0.937469
0.793973 1 0.937469
0.793973 1 0.937453
0.820493 1 0.937362
0.908125 1 0.937087
1 1 0.937469
1 1 1
1 1 1
1 1 1
1 1 1
1 1 1
1 1 1
1 1 1
1 1 1
1 1 1
1 1 1
1 1 1
1 1 1
1 1 1
1 1 1
1 1 1
1 1 1
1 1 1
1 1 1
1 1 1
1 1 1
0.797375 0.858579 1
0.798154 0.858534 1
0.803586 0.858213 1
0.822126 0.85713 1
0.87097 0.854154 1
0.974456 0.848295 1
1 0.859693 1
1 1 1
1 1 1
0.797162 0.858976 1
0.79794 0.85893 1
0.803372 0.858625 1
0.821912 0.857527 1
0.870787 0.854551 1
0.974456 0.848295 1
1 0.859693 1
1 1 1
1 1 1
0.795926 0.861494 1
0.796704 0.861448 1
0.802121 0.861128 1
0.820676 0.860044 1
0.869627 0.857053 1
0.973541 0.850538 1
1 0.859709 1
1 1 1
1 1 1
0.792126 0.869459 1
0.792889 0.869413 1
0.798276 0.869093 1
0.816846 0.868009 1
0.865965 0.865034 1
0.970321 0.858442 1
1 0.861784 1
1 1 1
1 1 1
0.781842 0.891371 1
0.782589 0.891325 1
0.787839 0.891035 1
0.806348 0.889998 1
0.855787 0.887083 1
0.961181 0.880385 1
1 0.880095 1
1 1 1
1 1 1
0.75462 0.949767 1
0.755291 0.949737 1
0.760159 0.949493 1
0.778149 0.948592 1
0.827558 0.945953 1
0.9346 0.939483 1
1 0.933593 1
1 1 1
1 1 1
0.793301 1 1
0.793301 1 1
0.793301 1 1
0.793301 1 1
0.818494 1 1
0.904677 1 1
1 1 1
1 1 1
1 1 1
1 1 1
1 1 1
1 1 1
1 1 1
1 1 1
1 1 1
1 1 1
1 1 1
1 1 1
1 1 1
1 1 1
1 1 1
1 1 1
1 1 1
1 1 1
1 1 1
1 1 1
1 1 1
1 1 1
1 1 1
1 1 1
1 1 1
1 1 1
1 1 1
1 1 1
1 1 1
1 1 1
1 1 1
1 1 1
1 1 1
1 1 1
1 1 1
1 1 1
1 1 1
1 1 1
1 1 1
1 1 1
1 1 1
1 1 1
1 1 1
1 1 1
1 1 1
1 1 1
1 1 1
1 1 1
1 1 1
1 1 1
1 1 1
1 1 1
1 1 1
1 1 1
1 1 1
1 1 1
1 1 1
1 1 1
1 1 1
1 1 1
1 1 1
1 1 1
1 1 1
1 1 1
1 1 1
1 1 1
1 1 1
1 1 1
1 1 1
1 1 1
1 1 1
1 1 1
1 1 1
1 1 1
1 1 1
1 1 1
1 1 1
1 1 1
1 1 1
1 1 1
1 1 1
1 1 1
1 1 1
1 1 1
1 1 1
1 1 1
1 1 1
1 1 1
1 1 1
1 1 1
1 1 1
1 1 1
1 1 1
1 1 1
1 1 1
1 1 1
1 1 1
1 1 1
1 1 1
1 1 1
1 1 1
1 1 1
1 1 1
1 1 1
1 1 1
1 1 1
1 1 1
1 1 1
1 1 1
1 1 1
1 1 1
1 1 1
1 1 1
1 1 1
1 1 1
1 1 1
1 1 1
1 1 1
1 1 1
1 1 1
1 1 1
1 1 1
1 1 1
1 1 1
1 1 1
1 1 1
1 1 1
1 1 1
1 1 1
1 1 1
1 1 1
1 1 1
1 1 1
1 1 1
1 1 1
1 1 1
1 1 1
1 1 1
1 1 1
1 1 1
1 1 1
1 1 1
1 1 1
1 1 1
1 1 1
1 1 1
1 1 1
1 1 1
1 1 1
1 1 1
1 1 1
1 1 1
1 1 1
1 1 1
1 1 1
1 1 1
1 1 1
1 1 1
1 1 1
1 1 1
1 1 1
1 1 1
1 1 1
1 1 1
1 1 1
1 1 1
1 1 1
1 1 1
1 1 1
1 1 1
1 1 1
1 1 1
1 1 1
1 1 1
1 1 1
1 1 1
1 1 1
1 1 1
1 1 1
1 1 1
1 1 1
1 1 1
1 1 1
